X:5523
T:French Hornpipe. JNu.10
M:4/4
L:1/8
Q:160
S:James Nuttall MS,c1830,Rossendale,East Lancs.
R:Hornpipe
O:England
A:East Lancashire
N:Not necessarily French, maybe a tune for a stage dancer who had a
N:French act (!)..or not..CGP
Z:vmp.Manchester Morris Men
K:D
de|fgfe dcdB|A2F2F2FE|DFAd gfed|cdef e2de|!
fgfe dcdB|A2F2F2 FE|DFAd cgec|d2d2d2:|!
ef|gfeg fedf|edcB Adfa|gfeg fedf|e2c2c2 ef|!
gfeg fedf|edce dcBd|cBAc BA^GB|A^GAB A2||!
de|fgfe dcdB|A2F2F2FE|DFAd gfed|cdef e2de|!
fgfe dcdB|A2F2F2 FE|DFAd cgec|d2d2d2|]
